X:1
T:Christ in the Storm
T:Christ in the Storm
T:Leander Lycurgus Pickett
T:Manie Payne Ferguson, 1904
T:Public Domain Courtesy of the Cyber Hymnal™
T:Public Domain Courtesy of the Cyber Hymnal™
C:Leander Lycurgus Pickett
Z:Public Domain
Z:Courtesy of the Cyber Hymnal™
%%score ( 1 2 ) ( 3 4 )
L:1/8
Q:1/4=100
M:6/8
K:Bb
V:1 treble 
V:2 treble 
V:3 bass 
V:4 bass 
V:1
 [DF][DF][DF] [^C=E][DF][DB] | [EB]3 [EA]3 | [CE][CE][CE] [CE][DF][FA] | ([EG]3 [DF]3) | %4
w: 1.~Gal- i- lee’s wa- ters are|rag- ing,|On them a ves- sel is|tossed; *|
w: 2.~O- ver the noise of the|tem- pest,|O- ver the dash of the|wave, *|
w: 3.~Won- der- ful Je- sus, I|need Thee,|Out in the storm and the|strife, *|
w: 4.~When I am toil- ing in|row- ing,|Al- most en- gulfed in the|sea, *|
w: 5.~Wa- ters un- known are a-|wait- ing|Tra- vel- ers leav- ing earth’s|shore; *|
 [DF][DF][DF] [^C=E][DF][DB] | [EB]3 [EA]3 | [Fc][Fc][Fc] [=EG][EA][EB] | [FA]6 | %8
w: Sea- men in ter- ror are|call- ing,|“Car- est Thou not, we are|lost?”|
w: Rings the sweet voice of the|Sav- ior;|See, He is might- y to|save;|
w: Oft it has seemed I was|sink- ing,|Tossed on the o- cean of|life;|
w: Make of the bil- lows a|path- way,|Come thro’ the dark- ness to|me;|
w: Back to this side of the|riv- er,|Pas- sen- gers come ne- ver-|more;|
 [Fd][Ec][DB] [B,D][DF][DB] | [EA]3 [=EG]3 | [Fc]>[Fd][Fc] [=EB][EA][EG] | F6 | %12
w: Sweet- ly a- sleep on a|pil- low,|Mak- er and Sav- ior He|lay;|
w: Calmed in a mo- ment the|bil- lows,|Hushed in an in- stant to|sleep,|
w: Speak to the winds and the|wa- ters,|Each Thy be- hest must ful-|fill;|
w: Fail- ures and ter- rors will|van- ish,|Soon as I know Thou art|nigh;|
w: O when that chill tide is|bring- ing|Boat- men to bear me a-|way,|
 [Fd][Fd][Fd] [Fd][Fd][_Af] | [Gf]3 [Ge]3 | [Fc][EG][EA] [DB]!fermata![Fd][Ec] | [DB]6 || %16
w: Wild with dis- may they a-|wake Him,|“Mas- ter, we per- ish,” they|say.|
w: Stilled is the roar of the|wild winds,|Stea- died their boat on the|deep.|
w: Speak to my heart in the|tem- pest,|Whis- per- ing soft- ly, “Be|still.”|
w: Say to my soul in the|dan- ger,|“Be not a- fraid, it is|I.”|
w: Gal- i- lee’s Con- qu’ror, be|with me;|Pi- lot me o- ver, I|pray.|
"^Refrain" [B,D][CE][^C=E] [DF]2 [DB]/[DB]/ | [EB][EA][EG] [EA]3 | %18
w: ||
w: ||
w: Speak thro’ the storm when the|bil- lows run high,|
w: ||
w: ||
 [=Ec]>[Ec][Ec] !fermata![Fc]2 [FB]/[FB]/ | [FB][FA][=EG] F3 | [Fd][Fd][Fd] [Fd]2 [Fd]/[Fd]/ | %21
w: |||
w: |||
w: Say to my soul, “Do not|fear, it is I”;|Speak thro’ the storm when the|
w: |||
w: |||
 [Fd][Fc][Fd] [Ee]3 | [GB][FA][EG] [DF]2 [DB]/[DB]/ | [EA]>[EG][EA] [DB]3 |] %24
w: |||
w: |||
w: bil- lows run high,|Say to my soul, “Do not|fear, it is I.”|
w: |||
w: |||
V:2
 x6 | x6 | x6 | x6 | x6 | x6 | x6 | x6 | x6 | x6 | x6 | F6 | x6 | x6 | x6 | x6 || x6 | x6 | x6 | %19
 x3 F3 | x6 | x6 | x6 | x6 |] %24
V:3
 [B,,B,][B,,B,][B,,B,] [B,,B,][B,,B,][B,,F,] | [C,F,]3 [C,F,]3 | %2
 [F,A,][F,A,][F,A,] [F,A,][F,B,][F,C] | [B,,B,]6 | [B,,B,][B,,B,][B,,B,] [B,,B,][B,,B,][B,,B,] | %5
 [C,F,]3 [C,F,]3 | [C,A,][C,A,][C,A,] [C,C][C,C][C,C] | [F,C]6 | %8
 [B,,B,][B,,B,][B,,B,] [B,,F,][B,,B,][B,,F,B,] | [C,F,]3 [C,C]3 | %10
 [C,A,]>[C,B,][C,A,] [C,G,][C,C][C,B,] | [F,A,]6 | B,B,B, B,B,[D,B,] | [E,B,]3 [E,B,]3 | %14
 [F,A,][F,C][F,C] [F,B,]!fermata![F,B,][F,A,] | [B,,B,]6 || %16
 [B,,F,][B,,F,][B,,B,] [B,,B,]2 [B,,F,]/[B,,F,]/ | [C,F,][C,F,][C,F,] [C,F,]3 | %18
 [C,G,]>[C,G,][C,G,] !fermata![F,A,]2 [B,,D]/[B,,D]/ | [C,C][C,C][C,B,] [F,A,]3 | %20
 B,B,B, B,2 B,/B,/ | [_A,B,][A,B,][A,B,] [G,B,]3 | [E,B,][E,B,][E,B,] [F,B,]2 [F,B,]/[F,B,]/ | %23
 [F,C]>[F,C][F,C] [B,,B,]3 |] %24
V:4
 x6 | x6 | x6 | x6 | x6 | x6 | x6 | x6 | x6 | x6 | x6 | x6 | B,B,B, B,B, x | x6 | x6 | x6 || x6 | %17
 x6 | x6 | x6 | B,B,B, B,2 B,/B,/ | x6 | x6 | x6 |] %24

